X:1
T:[ID 2-72a]
T:[ID 2-72a]
T:Bezeichnung standardisiert: Menuett Menuet 1. ex G. #. In dieser Quelle auch als: Menuetto
T:Urheber unbekannt Erstbeleg: 1767 (Datum in der schriftlichen Quelle) Datum in der hier transkribierten schriftlichen Quelle: 1775
C:Urheber unbekannt
C:Erstbeleg: 1767 (Datum in der schriftlichen Quelle)
C:Datum in der hier transkribierten schriftlichen Quelle: 1775
L:1/8
M:3/4
K:G
V:1 treble 
V:1
 B,2 B,4 | [GB]2 [GB]4 | gfedcB | A4 G2 | F2 F2 F2 | FG A4 | GBcBAG | G2 F4 :: GABGAB | c2 cBAG | %10
 FGAFGA | B2 BAGD | B,2 B,4 | [GB]2 [GB]4 | (3cBA (3BGB, (3CB,A, | B,6 :| %16

